src/48x48/places/folder-gruvbox-original-orange-development.svg

<?xml version="1.0" encoding="UTF-8"?>
<svg width="48" height="48" version="1" xmlns="http://www.w3.org/2000/svg">
 <rect x="4" y="17" width="40" height="26" rx="2" ry="2" opacity=".2"/>
 <path d="m4 34c0 1.108 0.892 2 2 2h36c1.108 0 2-0.892 2-2v-22c0-1.108-0.892-2-2-2h-18c-3 0-4-4-7-4h-11c-1.108 0-2 0.892-2 2" fill="#af3a03"/>
 <rect x="4" y="15" width="40" height="26" rx="2" ry="2" opacity=".2"/>
 <rect x="6" y="13" width="36" height="16" rx="2" ry="2" fill="#F1D8AF"/>
 <rect x="4" y="16" width="40" height="26" rx="2" ry="2" fill="#fe8019"/>
 <path d="m6 6c-1.108 0-2 0.892-2 2v1c0-1.108 0.892-2 2-2h11c3 0 4 4 7 4h18c1.108 0 2 0.892 2 2v-1c0-1.108-0.892-2-2-2h-18c-3 0-4-4-7-4z" fill="#F1D8AF" opacity=".1"/>
 <path d="m22.251 22-0.155 1.845c-0.584 0.216-1.128 0.531-1.607 0.929l-1.677-0.79-1.75 3.032 1.521 1.056c-0.054 0.306-0.082 0.617-0.084 0.928 0 0.312 0.027 0.624 0.08 0.932l-1.517 1.052 1.75 3.031 1.672-0.787c0.481 0.397 1.026 0.71 1.611 0.924l0.155 1.848h3.5l0.155-1.844c0.584-0.216 1.128-0.531 1.607-0.929l1.676 0.789 1.75-3.032-1.522-1.056c0.054-0.306 0.083-0.616 0.085-0.927 0-0.312-0.028-0.624-0.081-0.932l1.518-1.053-1.75-3.031-1.672 0.787c-0.481-0.397-1.026-0.709-1.611-0.923l-0.154-1.849zm1.75 5.001c1.105 0 2 0.895 2 2s-0.895 2-2 2-2-0.895-2-2 0.895-2 2-2z" fill="#46352B"/>
</svg>

<svg xmlns="http://www.w3.org/2000/svg" width="48" height="48" version="1">
 <rect style="opacity:0.2" width="40" height="26" x="4" y="17" rx="2" ry="2"/>
 <path style="fill:#af3a03" d="M 4,34 C 4,35.108 4.892,36 6,36 H 42 C 43.108,36 44,35.108 44,34 V 12 C 44,10.892 43.108,10 42,10 H 24 C 21,10 20,6 17,6 H 6 C 4.892,6 4,6.892 4,8"/>
 <rect style="opacity:0.2" width="40" height="26" x="4" y="15" rx="2" ry="2"/>
 <rect style="fill:#F1D8AF" width="36" height="16" x="6" y="13" rx="2" ry="2"/>
 <rect style="fill:#fe8019" width="40" height="26" x="4" y="16" rx="2" ry="2"/>
 <path style="opacity:0.1;fill:#F1D8AF" d="M 6,6 C 4.892,6 4,6.892 4,8 V 9 C 4,7.892 4.892,7 6,7 H 17 C 20,7 21,11 24,11 H 42 C 43.108,11 44,11.892 44,13 V 12 C 44,10.892 43.108,10 42,10 H 24 C 21,10 20,6 17,6 Z"/>
 <path style="fill:#46352B" d="M 22.251,22 22.096,23.845 C 21.512,24.061 20.968,24.376 20.489,24.774 L 18.812,23.984 17.062,27.016 18.583,28.072 C 18.529,28.378 18.501,28.689 18.499,29 18.499,29.312 18.526,29.624 18.579,29.932 L 17.062,30.984 18.812,34.015 20.484,33.228 C 20.965,33.625 21.51,33.938 22.095,34.152 L 22.25,36 H 25.75 L 25.905,34.156 C 26.489,33.94 27.033,33.625 27.512,33.227 L 29.188,34.016 30.938,30.984 29.416,29.928 C 29.47,29.622 29.499,29.312 29.501,29.001 29.501,28.689 29.473,28.377 29.42,28.069 L 30.938,27.016 29.188,23.985 27.516,24.772 C 27.035,24.375 26.49,24.063 25.905,23.849 L 25.751,22 Z M 24.001,27.001 C 25.106,27.001 26.001,27.896 26.001,29.001 26.001,30.106 25.106,31.001 24.001,31.001 22.896,31.001 22.001,30.106 22.001,29.001 22.001,27.896 22.896,27.001 24.001,27.001 Z"/>
</svg>
